X:6783
T:Happy Days Jig
C:Andy De Jarlis
M:6/8
L:1/8
K:G
B/c/|d2 g B2 e|d2 B GFG|A2 B cAF|d2 B G2 B/c/|!
d2 g B2 e|d2 B GFG|A2 B cAF|G3 -G2:|!
|:D|B2 c BAG|D2 B, G,B,D|c2 F A2 G|B2 c BAG|!
B3 BAG|D2 B, G,B,D|c2 F A2 F|G4 -G:|!
|:B/d/|g2 a g2 f|e3 -efg|a2 g fef|g3 -gBd|!
g2 a g2 f|e3 -efg|a2 g fef|g4 -g:|!
